!!!COM: Music21
!!!OTL: reel_42-Beech-Avenue
!!!OMV: reel_42-Beech-Avenue
**kern
*clefG2
*k[f#]
*G:
*M4/4
=1
8g
8r
8dd
8r
8ddL
8bJ
4dd
=
8ee
8r
8ddL
8eeJ
8eeL
8ggJ
16ggLL
16ggJ
8ggJ
=
8g
8r
4dd
8ccL
8bJ
4g
=
8eL
8aJ
8aL
8aJ
8f#L
8dJ
8BL
8AJ
=
8GL
8g
8ddJ
8r
8ddL
8bJ
4dd
!!linebreak:original
=
8ee
8r
8ddL
8eeJ
8eeL
8ggJ
8aaL
8bbJ
=
4dd
8ccL
8bJ
8ccL
8bJ
4g
=
8eL
8aJ
8aL
8aJ
8gL
8f#J
8gL
8aJ
=||
*M4/4
8g
8r
8dd
8r
8ddL
8bJ
4dd
=
8ee
8r
8ddL
8eeJ
8eeL
8ggJ
16ggLL
16ggJ
8ggJ
!!linebreak:original
=
8g
8r
4dd
8ccL
8bJ
4g
=
8eL
8aJ
8aL
8aJ
8f#L
8dJ
8BL
8AJ
=
8GL
8g
8ddJ
8r
8ddL
8bJ
4dd
=
8ee
8r
8ddL
8eeJ
8eeL
8ggJ
8aaL
8bbJ
=
4dd
8ccL
8bJ
8ccL
8bJ
4g
!!linebreak:original
=
8eL
8aJ
8aL
8aJ
8gL
8f#J
8gL
8aJ
=||
8ee
8r
8ddL
8bJ
8ddL
8eeJ
[4g
=
8gL]
8dJ
8eL
8gJ
8aL
8gJ
8aL
8bJ
=
8ee
8r
8ddL
8bJ
8ddL
8eeJ
[4g
=
8gL]
8ggJ
8ggL
8eeJ
8eeL
8ddJ
16ddLL
16ddJ
8bJ
!!linebreak:original
=
8ee
8r
8ddL
8bJ
8ddL
8eeJ
[4g
=
8gL]
8dJ
8eL
8gJ
8aL
8gJ
8aL
8bJ
=
8r
8d
8eL
8gJ
8aL
8gJ
8aL
8bJ
=
8gL
8ggJ
8ggL
8ddJ
8eeL
8ggJ
8aaL
8bbJ
=||
8ee
8r
8ddL
8bJ
8ddL
8eeJ
[4g
!!linebreak:original
=
8gL]
8dJ
8eL
8gJ
8aL
8gJ
8aL
8bJ
=
8ee
8r
8ddL
8bJ
8ddL
8eeJ
[4g
=
8gL]
8ggJ
8ggL
8eeJ
8eeL
8ddJ
16ddLL
16ddJ
8bJ
=
8ee
8r
8ddL
8bJ
8ddL
8eeJ
[4g
=
8gL]
8dJ
8eL
8gJ
8aL
8gJ
8aL
8bJ
!!linebreak:original
=
8r
8d
8eL
8gJ
8aL
8gJ
8aL
8bJ
=
8gL
8ggJ
8ggL
8eeJ
8eeL
8ddJ
8bL
8aJ
=||
*-
